X:49
T:General Waldgrave's. ThoH.049
Q:1/2=90
M:C
L:1/8
B:Thompson's Compleat Collection of 120 Favourite Hornpipes.
Z:Village Music Project, Simon Wilson 2016
O:England.
K:F
cB|A2F2BdBG|A2F2fafc|A2F2EFGF|E2C4cB|
A2F2BdBG|A2F2fafd|A2F2EFGE|F6:|
|:(g/f/e)|fafd egec|dfdB cecA|BdBG AcAF|GFEDC2(g/f/e)|
fafd egec|dfdB cecA|BdBG AFEG|F6:|

